X: 25327
T: Mannin Veg Veen
R: reel
M: 4/4
K: Dmajor
D2|A2 A2 AGFE|D2 D2 D2 D2|A3B A2 D2|G2 G4 FG|
A2 A2 GFED|D2 DC A,2 CD|E2 A2 GF E2|D2 D4||

